assets/img/arrow-angle-left.svg

<svg fill="none" height="793" viewBox="0 0 463 793" width="463" xmlns="http://www.w3.org/2000/svg" xmlns:xlink="http://www.w3.org/1999/xlink"><clipPath id="a"><path d="m0 0h463v793h-463z"/></clipPath><g clip-path="url(#a)"><path d="m9.52065 370.896 396.34535-361.191c13.006-12.94 34.099-12.94 47.105 0 13.006 12.939 13.006 33.934 0 46.874l-372.4474 339.438 372.4144 339.437c13.006 12.94 13.006 33.935 0 46.874s-34.099 12.939-47.104 0l-396.34637-361.191c-6.93201-6.898-9.903984-16.043-9.4409838-25.087-.4310002-9.078 2.5400038-18.222 9.4740038-25.154z" fill="#fff"/></g></svg>

<svg width="463" height="793" viewBox="0 0 463 793" fill="none" xmlns="http://www.w3.org/2000/svg">
<g clip-path="url(#clip0)">
<path d="M9.52065 370.896L405.866 9.705C418.872 -3.235 439.965 -3.235 452.971 9.705C465.977 22.644 465.977 43.639 452.971 56.579L80.5236 396.017L452.938 735.454C465.944 748.394 465.944 769.389 452.938 782.328C439.932 795.267 418.839 795.267 405.834 782.328L9.48763 421.137C2.55562 414.239 -0.416354 405.094 0.0466462 396.05C-0.384354 386.972 2.58665 377.828 9.52065 370.896Z" fill="white"/>
</g>
<defs>
<clipPath id="clip0">
<rect width="463" height="793" fill="white"/>
</clipPath>
</defs>
</svg>
